X: 25094
T: Maids Of Selma, The
R: jig
M: 6/8
K: Gmajor
G2E EDE|~G3 dge|d2B BAG|AcB AGF|
G2E EDE|~G3 gBe|d2B BAG|1 ABA G2F:|2 ABA GBc||
|:dBd gdg|dge edB|d2e g2a|bee edB|
G (3Bcd gdg|dge edB|d2e g2a|b3 ~a3|
gBg efg|~f3 dBd|e2B BAB|G2E EDE|
G2E EDE|~G3 gBe|d2B BAG|1 ABA GBc:|2 A2A AGF||

